X: 11083
T: Duck, The
R: jig
M: 6/8
K: Dmajor
Add def|edd def|edd def|edd eff|
Add def|edd def|e2d fed|B2A Bdd:|
A2a f2e|fdd d2e|fdd d2e|f2e fga|
A2a f2e|fdd d2e|f2d fed|B2A Bdd:|
Acc cef|ecc cef|ecc cef|ecc eff|
Acc cef|ecc cef|e2c fec|B2A Bcc:|
A2a f2e|faa f2e|faa f2e|faa fec|
A2a f2e|faa f2e|eff fec|B2A Bcc:|

